X:881
T:Xiraldilla (CT 388)
R:Xiraldilla
C:Tradicional
S:Msica Tradicional Asturiana, (C) Tello & Tito. Asturies, 2001.
S:http://pagina.de/MusTradAst <telloytito@asturies.org>
N:Xiraldilla, transcrita en Uviu.
N:Las sealadas con los nmeros CT 387, CT 388 y CT 389, son variantes de una misma meloda.
N:Estas xiraldillas son, ya de antiguo, muy corrientes en las romeras que se celebran en el concejo de Uviu.
A:Asturies
O:Uviu
Z:Cancioneru de Torner 388
M:3/8
L:1/8
Q:3/8=88
K:G
|ggg|gab|a2 f|dfa|g2 e|ceg|f2 d-|d2 z|
eee|efg|f2 d|Bdf|e2 c|Ace|d2 B-|B2||
W:A m me gusta una gaita,
W:vaya una gaita,
W:vaya un gaitero!
W:
W:A m me gusta una gaita,
W:que tenga el fuelle
W:de terciopelo.
W:
